assets/Teddy bear/Flat/teddy_bear_flat.svg

<svg width="32" height="32" viewBox="0 0 32 32" fill="none" xmlns="http://www.w3.org/2000/svg">
<path d="M11.5 7.07031C12.8807 7.07031 14 5.95102 14 4.57031C14 3.1896 12.8807 2.07031 11.5 2.07031C10.1193 2.07031 9.00002 3.1896 9.00002 4.57031C9.00002 5.95102 10.1193 7.07031 11.5 7.07031Z" fill="#D3883E"/>
<path d="M20.5 7.07031C21.8807 7.07031 23 5.95102 23 4.57031C23 3.1896 21.8807 2.07031 20.5 2.07031C19.1193 2.07031 18 3.1896 18 4.57031C18 5.95102 19.1193 7.07031 20.5 7.07031Z" fill="#D3883E"/>
<path d="M17.5625 15.561C18.4255 14.1466 20.2717 13.6996 21.686 14.5625L28.5152 18.7293C29.9296 19.5923 30.3766 21.4384 29.5137 22.8528C28.6507 24.2672 26.8046 24.7142 25.3902 23.8512L18.561 19.6844C17.1466 18.8215 16.6996 16.9753 17.5625 15.561Z" fill="#D3883E"/>
<path d="M3.5981 18.6791C2.16322 19.5075 1.67159 21.3423 2.50002 22.7772C3.32845 24.2121 5.16322 24.7037 6.5981 23.8753L13.5263 19.8753C14.9612 19.0468 15.4528 17.2121 14.6244 15.7772C13.7959 14.3423 11.9612 13.8507 10.5263 14.6791L3.5981 18.6791Z" fill="#D3883E"/>
<path d="M24 10.152C24 14.5703 20.4183 16.0703 16 16.0703C11.5817 16.0703 8 14.5703 8 10.152C8 5.73376 12.5 2.57031 16 2.57031C19.5 2.57031 24 5.73376 24 10.152Z" fill="#E19747"/>
<path d="M24 10.152C24 14.5703 20.4183 16.0703 16 16.0703C11.5817 16.0703 8 14.5703 8 10.152C8 5.73376 12.5 2.57031 16 2.57031C19.5 2.57031 24 5.73376 24 10.152Z" fill="#FF822D"/>
<path d="M21.2306 15.017C22.9268 14.1147 24 12.5706 24 10.152C24 5.73376 19.5 2.57031 16 2.57031C12.5 2.57031 8 5.73376 8 10.152C8 12.5706 9.07322 14.1147 10.7694 15.017C9.07322 16.4839 8 18.6518 8 21.0703C8 25.4886 11.5817 29.0703 16 29.0703C20.4183 29.0703 24 25.4886 24 21.0703C24 18.6518 22.9268 16.4839 21.2306 15.017Z" fill="#E19747"/>
<path d="M7.54033 22.5206C9.09088 21.3663 11.2835 21.6876 12.4378 23.2381L13.3335 24.4413C14.4877 25.9919 14.1665 28.1845 12.6159 29.3388C11.0654 30.493 8.87271 30.1718 7.71846 28.6212L6.82277 27.418C5.66852 25.8675 5.98979 23.6748 7.54033 22.5206ZM24.4714 22.5206C22.9208 21.3663 20.7282 21.6876 19.5739 23.2381L18.6782 24.4413C17.524 25.9919 17.8453 28.1845 19.3958 29.3388C20.9463 30.493 23.139 30.1718 24.2933 28.6212L25.189 27.418C26.3432 25.8675 26.0219 23.6748 24.4714 22.5206Z" fill="#D3883E"/>
<path d="M21.856 5.21241C21.9484 5.01777 22 4.80007 22 4.57031C22 3.74189 21.3284 3.07031 20.5 3.07031C20.1042 3.07031 19.7442 3.22361 19.4762 3.47406C20.339 3.91389 21.158 4.50226 21.856 5.21241ZM12.5239 3.47406C12.2558 3.22361 11.8958 3.07031 11.5 3.07031C10.6716 3.07031 10 3.74189 10 4.57031C10 4.80007 10.0517 5.01777 10.144 5.21241C10.842 4.50226 11.661 3.91389 12.5239 3.47406ZM19.5 11.5C19.5 12.8807 17.933 14.5 16 14.5C14.067 14.5 12.5 12.8807 12.5 11.5C12.5 10.1193 14.067 9 16 9C17.933 9 19.5 10.1193 19.5 11.5ZM21 22.0703L20.9998 22.1117C20.4515 22.3466 19.9559 22.7251 19.574 23.2381L18.6783 24.4413C18.1829 25.1067 17.9593 25.8904 17.988 26.6595C17.3787 26.9238 16.7065 27.0703 16 27.0703C15.298 27.0703 14.6298 26.9256 14.0236 26.6645C14.0534 25.8938 13.8299 25.1082 13.3335 24.4413L12.4378 23.2381C12.0532 22.7214 11.5532 22.3412 11.0001 22.1067L11 22.0703C11 19.3089 13.2386 17.0703 16 17.0703C18.7614 17.0703 21 19.3089 21 22.0703ZM11.2639 24.1508C10.6043 23.2648 9.35138 23.0812 8.46535 23.7408C7.57933 24.4003 7.39575 25.6533 8.05532 26.5393L8.95101 27.7425C9.61058 28.6286 10.8635 28.8121 11.7496 28.1526C12.6356 27.493 12.8192 26.24 12.1596 25.354L11.2639 24.1508ZM23.5464 23.7408C22.6604 23.0812 21.4074 23.2648 20.7478 24.1508L19.8521 25.354C19.1926 26.24 19.3762 27.493 20.2622 28.1526C21.1482 28.8121 22.4012 28.6286 23.0607 27.7425L23.9564 26.5393C24.616 25.6533 24.4324 24.4003 23.5464 23.7408Z" fill="#FFDEA7"/>
<path d="M14 8.5C14 8.77614 13.7761 9 13.5 9C13.2239 9 13 8.77614 13 8.5C13 8.22386 13.2239 8 13.5 8C13.7761 8 14 8.22386 14 8.5Z" fill="black"/>
<path d="M19 8.5C19 8.77614 18.7761 9 18.5 9C18.2239 9 18 8.77614 18 8.5C18 8.22386 18.2239 8 18.5 8C18.7761 8 19 8.22386 19 8.5Z" fill="black"/>
<path d="M15.0422 10.2987C15.1196 10.1228 15.2955 10 15.5 10H16.5C16.7045 10 16.8804 10.1228 16.9578 10.2987C17.0113 10.4201 16.9473 10.5527 16.8536 10.6464L16.3536 11.1464C16.1583 11.3417 15.8417 11.3417 15.6464 11.1464L15.1464 10.6464C15.0527 10.5527 14.9887 10.4201 15.0422 10.2987Z" fill="black"/>
</svg>

<svg xmlns="http://www.w3.org/2000/svg" width="32" height="32" fill="none"><path fill="#D3883E" d="M11.5 7.07a2.5 2.5 0 1 0 0-5 2.5 2.5 0 0 0 0 5ZM20.5 7.07a2.5 2.5 0 1 0 0-5 2.5 2.5 0 0 0 0 5ZM17.563 15.561a3 3 0 0 1 4.123-.998l6.83 4.166a3 3 0 0 1-3.126 5.122l-6.829-4.167a3 3 0 0 1-.998-4.123ZM3.598 18.68a3 3 0 0 0 3 5.195l6.928-4a3 3 0 0 0-3-5.196l-6.928 4Z"/><path fill="#E19747" d="M24 10.152c0 4.418-3.582 5.918-8 5.918s-8-1.5-8-5.918 4.5-7.582 8-7.582 8 3.164 8 7.582Z"/><path fill="#FF822D" d="M24 10.152c0 4.418-3.582 5.918-8 5.918s-8-1.5-8-5.918 4.5-7.582 8-7.582 8 3.164 8 7.582Z"/><path fill="#E19747" d="M21.23 15.017c1.697-.902 2.77-2.446 2.77-4.865 0-4.418-4.5-7.582-8-7.582s-8 3.164-8 7.582c0 2.419 1.073 3.963 2.77 4.865a8 8 0 1 0 10.461 0Z"/><path fill="#D3883E" d="M7.54 22.52a3.5 3.5 0 0 1 4.898.718l.896 1.203a3.5 3.5 0 0 1-5.616 4.18l-.895-1.203a3.5 3.5 0 0 1 .717-4.897Zm16.931 0a3.5 3.5 0 0 0-4.897.718l-.896 1.203a3.5 3.5 0 0 0 5.615 4.18l.896-1.203a3.5 3.5 0 0 0-.718-4.897Z"/><path fill="#FFDEA7" d="M21.856 5.212a1.5 1.5 0 0 0-2.38-1.738 9.235 9.235 0 0 1 2.38 1.738Zm-9.332-1.738a1.5 1.5 0 0 0-2.38 1.738 9.234 9.234 0 0 1 2.38-1.738ZM19.5 11.5c0 1.38-1.567 3-3.5 3s-3.5-1.62-3.5-3S14.067 9 16 9s3.5 1.12 3.5 2.5ZM21 22.07v.042a3.484 3.484 0 0 0-1.426 1.126l-.896 1.203a3.485 3.485 0 0 0-.69 2.219c-.61.264-1.282.41-1.988.41-.702 0-1.37-.144-1.976-.405a3.486 3.486 0 0 0-.69-2.224l-.896-1.203A3.483 3.483 0 0 0 11 22.107v-.037a5 5 0 0 1 10 0Zm-9.736 2.08a2 2 0 0 0-3.209 2.39l.896 1.203a2 2 0 1 0 3.209-2.389l-.896-1.203Zm12.282-.41a2 2 0 0 0-2.798.41l-.896 1.204a2 2 0 0 0 3.209 2.389l.895-1.204a2 2 0 0 0-.41-2.798Z"/><path fill="#000" d="M14 8.5a.5.5 0 1 1-1 0 .5.5 0 0 1 1 0ZM19 8.5a.5.5 0 1 1-1 0 .5.5 0 0 1 1 0ZM15.042 10.299A.5.5 0 0 1 15.5 10h1a.5.5 0 0 1 .458.299c.053.121-.01.254-.104.347l-.5.5a.5.5 0 0 1-.708 0l-.5-.5c-.093-.093-.157-.226-.104-.347Z"/></svg>
